build/flags/Cambodia.svg

<svg xmlns="http://www.w3.org/2000/svg" fill="none" viewBox="0 0 28 28" focusable="false"><defs><filter id="Cambodia_svg__a"><feColorMatrix values="0 0 0 0 1 0 0 0 0 1 0 0 0 0 1 0 0 0 1 0"/></filter></defs><mask id="Cambodia_svg__b" width="28" height="20" x="0" y="4" maskUnits="userSpaceOnUse"><g filter="url(#Cambodia_svg__a)"><rect width="28" height="20" y="4" fill="#FFF" rx="3"/><rect width="28" height="20" y="4" stroke="#969696" stroke-opacity="0" stroke-width="0" rx="3"/></g></mask><path fill="none" d="M0 0H28V28H0z"/><rect width="28" height="20" y="4" fill="#FFF" rx="3"/><rect width="28" height="20" y="4" rx="3"/><g mask="url(#Cambodia_svg__b)"><path fill="#0F3EB6" fill-rule="evenodd" d="M0 9.33333L28 9.33333L28 4L0 4L0 9.33333Z"/><path d="M28 9.33333L28 4L0 4L0 9.33333L28 9.33333Z"/><path fill="#0F3EB6" fill-rule="evenodd" d="M0 24L28 24L28 18.6667L0 18.6667L0 24Z"/><path d="M28 24L28 18.6667L0 18.6667L0 24L28 24Z"/><path fill="#ED1A3C" fill-rule="evenodd" d="M0 18.6666L28 18.6666L28 9.33331L0 9.33331L0 18.6666Z"/><path d="M28 18.6666L28 9.33331L0 9.33331L0 18.6666L28 18.6666Z"/><path fill="#FFF" fill-rule="evenodd" d="M12 12.7272L13.3333 12.7272L13.3333 12C13.3333 11.6318 13.6318 11.3333 14 11.3333C14.3682 11.3333 14.6667 11.6318 14.6667 12L14.6667 12.7272L16 12.7272L16 14L12 14L12 12.7272ZM9.99999 14L9.99999 12.6666C9.99999 12.2985 10.2985 12 10.6667 12C11.0348 12 11.3333 12.2985 11.3333 12.6666L11.3333 14L9.99999 14ZM16.6667 14L18 14L18 12.6666C18 12.2985 17.7015 12 17.3333 12C16.9651 12 16.6667 12.2985 16.6667 12.6666L16.6667 14ZM11.3333 14.6666L9.99999 14.6666L8.66666 17.3333L11.3333 17.3333L11.3333 14.6666ZM16 17.3333L16 14.6666L12 14.6666L12 17.3333L16 17.3333ZM18 14.6666L16.6667 14.6666L16.6667 17.3333L19.3333 17.3333L18 14.6666Z"/><path d="M12 12.7272L13.3333 12.7272L13.3333 12C13.3333 11.6318 13.6318 11.3333 14 11.3333C14.3682 11.3333 14.6667 11.6318 14.6667 12L14.6667 12.7272L16 12.7272L16 14L12 14L12 12.7272ZM9.99999 14L9.99999 12.6666C9.99999 12.2985 10.2985 12 10.6667 12C11.0348 12 11.3333 12.2985 11.3333 12.6666L11.3333 14L9.99999 14ZM16.6667 14L18 14L18 12.6666C18 12.2985 17.7015 12 17.3333 12C16.9651 12 16.6667 12.2985 16.6667 12.6666L16.6667 14ZM11.3333 14.6666L9.99999 14.6666L8.66666 17.3333L11.3333 17.3333L11.3333 14.6666ZM16 17.3333L16 14.6666L12 14.6666L12 17.3333L16 17.3333ZM18 14.6666L16.6667 14.6666L16.6667 17.3333L19.3333 17.3333L18 14.6666Z"/></g></svg>

<svg xmlns="http://www.w3.org/2000/svg" fill="none" viewBox="0 0 28 28" focusable="false"><path fill="none" d="M0 0h28v28H0z"/><rect width="28" height="20" y="4" fill="#FFF" rx="3"/><rect width="28" height="20" y="4" rx="3"/><mask id="Cambodia_svg__a" width="28" height="20" x="0" y="4" mask-type="alpha" maskUnits="userSpaceOnUse"><rect width="28" height="20" y="4" fill="#FFF" rx="3"/><rect width="28" height="20" y="4" stroke="#979797" stroke-opacity="0" stroke-width="0" rx="3"/></mask><g mask="url(#Cambodia_svg__a)"><path fill="#0F3EB6" fill-rule="evenodd" d="M0 9.33h28V4H0z"/><path d="M28 9.33V4H0v5.33z"/></g><g mask="url(#Cambodia_svg__a)"><path fill="#0F3EB6" fill-rule="evenodd" d="M0 24h28v-5.34H0z"/><path d="M28 24v-5.34H0V24z"/></g><g mask="url(#Cambodia_svg__a)"><path fill="#ED1A3C" fill-rule="evenodd" d="M0 18.66h28V9.33H0z"/><path d="M28 18.66V9.33H0v9.33z"/></g><g mask="url(#Cambodia_svg__a)"><mask id="Cambodia_svg__b" fill="#fff"><path fill-rule="evenodd" d="M12 12.727h1.333V12a.667.667 0 0 1 1.334 0v.727H16V14h-4zM10.667 12a.667.667 0 0 0-.667.667V14h1.333v-1.333a.667.667 0 0 0-.666-.667m6.666 0a.667.667 0 0 0-.666.667V14H18v-1.333a.667.667 0 0 0-.667-.667m-6 2.667H10l-1.333 2.666h2.666zm4.667 0h-4v2.666h4zm.667 0H18l1.333 2.666h-2.666z" clip-rule="evenodd"/></mask><path fill="#FFF" fill-rule="evenodd" d="M12 12.727h1.333V12a.667.667 0 0 1 1.334 0v.727H16V14h-4zM10.667 12a.667.667 0 0 0-.667.667V14h1.333v-1.333a.667.667 0 0 0-.666-.667m6.666 0a.667.667 0 0 0-.666.667V14H18v-1.333a.667.667 0 0 0-.667-.667m-6 2.667H10l-1.333 2.666h2.666zm4.667 0h-4v2.666h4zm.667 0H18l1.333 2.666h-2.666z" clip-rule="evenodd" mask="url(#Cambodia_svg__b)"/></g></svg>
